X: 1835
T: Sûzidilârâ Sazsemâîsi
C: Tanburî Cemil Bey
O: Turkey
F: http://compmusic.upf.edu/node/140
N: suzidilara--sazsemaisi--aksaksemai----tanburi_cemil_bey
N: makam= suzidilara
N: form= sazsemaisi
N: usul= aksaksemai = 10/8
M: 10/8
L: 1/16
K: C ^9/8f   
Q: 1/4=114
%%MIDI tuningsystem comma53
G4 A2AB AGAB cdB2 c2A2  | G4 A2_B3/2A/ GAGF EFG4z2  | 
w:  1. HANE  |   | 
G4 A2Bc B2cd c2de d2e2  | A4 g=ffe2ddc cde4z2  | 
w:   |   | 
=f4 e2f3ef2 g2ag fed2  | c2d2 d2e=f eddc cBc4z2  | 
w:  TESLİM  |   | 
c4 c2c2 B2_7/8B2 A2d^c BAG2  | A2_7/8BA G2A^c BAAG GFG4z2  | 
w:   |   | 
=f4 e2f3ef2 g2ag fed2  | c2d2 d2e=f eddc cBc4z2  | 
w:  TESLİM  |   | 
c4 c2c2 B2_7/8B2 A2d^c BAG2  | A2_7/8BA G2A^c BAAG GFG4z2  | 
w:   |   | 
G4 d2d3_7/8edc Bcd4z2  | Bcd_7/8e dce3dc2 e2dc cBc2  | 
w:  2. HANE  |   | 
dcB2 c2d4e2 f2g4=fe  | d4 cBA3G=f2 edd4z2  | \
w:   |   | 
=f4 e2f3ef2 g2ag fed2  | 
w:  TESLİM  | 
c2d2 d2e=f eddc cBc4z2  | c4 c2c2 B2_7/8B2 A2d^c BAG2  | 
w:   |   | 
e4 d^cc_7/8B BAAG GFGA =B=cde  | =f4 e2f3ef2 g2ag fed2  | 
w:   |  TESLİM  | 
c2d2 d2e=f eddc cBc4z2  | c4 c2c2 B2_7/8B2 A2d^c BAG2  | 
w:   |   | 
e4 d^cc_7/8B BAAG GFG4z2  | g4 f2g3de2 f2g4z2  | 
w:   |  3. HANE  | 
fga_b agb3ag3ag2 f2g2  | e4 a2g3_ba2 g2=f2 e2d2  | 
w:   |   | 
e2=f2 g2fe d2fe d^cd4z2  | =f4 e2f3ef2 g2ag fed2  | 
w:   |  TESLİM  | 
c2d2 d2e=f eddc cBc4z2  | c4 c2c2 B2_7/8B2 A2d^c BAG2  | 
w:   |   | 
g4 =fed^c _7/8BAAG GFGA =B=cde  | \
w:   | 
=f4 e2f3ef2 g2ag fed2  | 
w:  TESLİM  | 
c2d2 d2e=f eddc cBc4z2  | c4 c2c2 B2_7/8B2 A2d^c BAG2  | 
w:   |   | 
g4 =fed^c _7/8BAAG GFG4z2  | z24  | G4B4d4c3BA8  | \
w:   |  |  4. HANE  | 
c3BA4d3^cB4f3ed2e2  | 
w:   | 
^c4d4d2g2=f2e2d2=c2B2A2  | G4B4d4c3BA8  | \
w:   |   | 
c3BA4d3^cB4f3ed2e2  | 
w:   | 
^c4d4G2AB=cdefg8  | d4g4g4=f2e2agfed4  | \
w:   |   | 
e4=f4e4d2e2d3c_1/4BAB2  | 
w:   | 
G4A4A2c2B2A2GFE2F2G2  | F4G4G2A2B2c2d2e2f2g2  | 
w:   |   | 
d4g4g4=f2e2agfed4  | e4=f4e4d2e2d3c_1/4BAB2  | \
w:   |   | 
G4A4A2c2B2A2GFE2F2G2  | 
w:   | 
F4G4G4G4G8  | z20  | =f4 e2f3ef2 g2(3aag (3ffed2  | \
w:   |  |  TESLİM  | 
c2d2 d2(3e=fg (3fed(3fed (3cBdc4z2  | 
w:   | 
c4 c2c2 B2_7/8B2 A2d^c BAG2  | e4 d^cc_7/8B BAAG GFGA =B=cde  | 
w:   |   | 
=f4 e2f3ef2 g2(3aag (3ffed2  | c2d2 d2(3e=fg (3fed(3fed (3cBdc4z2  | 
w:  TESLİM  |   | 
c4 c2c2 B2_7/8B2 A2d^c BAG2  | g4 =fed^c _7/8BAAG GFG4z2  | 
w:   |   | 
|


